X:19013
T:Si Bheag Si Mhor
R:Waltz
C:Turlough O'Carolan, 1691
O:Ireland
M:3/4
L:1/4
Q:1/4=100
K:D
d/e/|:"D"f>ed|"D7"d>ed|"G"B2A|"D"F2A|"G"B/A/ B/c/ d|"A7"e>de|"D"f2e|"D7"d2f|
"G"B2e|"D"A2d|"Bm"F2E|"D"D2f|"G"B2e|"A7"A>dc|"D"d3-|"D"d2 d/e/||
"D"f>ed|"D7"e/d/ e/f/ a|"G"b2a|"D"f>ed|"G"e2a|"D"f2e|"Em7"d2B|"A7"B2A|
"D"F2E|"D7"D2f|"G"B2e|"D"A>fa|"Em7"b/a/ g/f/ e/d/|"A7"e2 d/c/|"G"d3-|"D"d2 d/e/:||
